svgs/duotone/money-bills.svg

<svg xmlns="http://www.w3.org/2000/svg" viewBox="0 0 640 512"><!--! Font Awesome Pro 6.6.0 by @fontawesome - https://fontawesome.com License - https://fontawesome.com/license (Commercial License) Copyright 2024 Fonticons, Inc. --><defs><style>.fa-secondary{opacity:.4}</style></defs><path class="fa-secondary" d="M0 120L0 360c0 66.3 53.7 120 120 120l400 0c13.3 0 24-10.7 24-24s-10.7-24-24-24l-400 0c-39.8 0-72-32.2-72-72l0-240c0-13.3-10.7-24-24-24S0 106.7 0 120zm160 40l0 96c35.3 0 64 28.7 64 64l288 0c0-35.3 28.7-64 64-64l0-96c-35.3 0-64-28.7-64-64L224 96c0 35.3-28.7 64-64 64zm288 48a80 80 0 1 1 -160 0 80 80 0 1 1 160 0z"/><path class="fa-primary" d="M160 32c-35.3 0-64 28.7-64 64l0 224c0 35.3 28.7 64 64 64l416 0c35.3 0 64-28.7 64-64l0-224c0-35.3-28.7-64-64-64L160 32zM512 96c0 35.3 28.7 64 64 64l0 96c-35.3 0-64 28.7-64 64l-288 0c0-35.3-28.7-64-64-64l0-96c35.3 0 64-28.7 64-64l288 0z"/></svg>

<svg xmlns="http://www.w3.org/2000/svg" viewBox="0 0 640 512"><!--! Font Awesome Pro 6.5.2 by @fontawesome - https://fontawesome.com License - https://fontawesome.com/license (Commercial License) Copyright 2024 Fonticons, Inc. --><defs><style>.fa-secondary{opacity:.4}</style></defs><path class="fa-secondary" d="M48 120c0-13.3-10.7-24-24-24S0 106.7 0 120V360c0 66.3 53.7 120 120 120H520c13.3 0 24-10.7 24-24s-10.7-24-24-24H120c-39.8 0-72-32.2-72-72V120zM224 96c0 35.3-28.7 64-64 64v96c35.3 0 64 28.7 64 64H512c0-35.3 28.7-64 64-64V160c-35.3 0-64-28.7-64-64H224zm64 112a80 80 0 1 1 160 0 80 80 0 1 1 -160 0z"/><path class="fa-primary" d="M160 32c-35.3 0-64 28.7-64 64V320c0 35.3 28.7 64 64 64H576c35.3 0 64-28.7 64-64V96c0-35.3-28.7-64-64-64H160zM512 96c0 35.3 28.7 64 64 64v96c-35.3 0-64 28.7-64 64H224c0-35.3-28.7-64-64-64V160c35.3 0 64-28.7 64-64H512z"/></svg>
